app/assets/icons/replies.svg

<!-- Generated by IcoMoon.io -->
<svg version="1.1" xmlns="http://www.w3.org/2000/svg" width="32" height="32" viewBox="0 0 32 32">
<title>indent-increase</title>
<path d="M0 2h32v4h-32zM12 8h20v4h-20zM12 14h20v4h-20zM12 20h20v4h-20zM0 26h32v4h-32zM0 22v-12l8 6z"></path>
</svg>

<svg xmlns="http://www.w3.org/2000/svg" viewBox="0 0 32 32"><path d="M0 2h32v4H0zm12 6h20v4H12zm0 6h20v4H12zm0 6h20v4H12zM0 26h32v4H0zm0-4V10l8 6z"/></svg>
